X: 11994
T: Eoghainn Ian Alasdair
R: reel
M: 4/4
K: Amajor
|:f3g afc2|f3g afc2|e3f gBBB|efgb agf=f|
f3g afc2|f3g aefg|a2ga fdBA|1 GABG A4:|2 GABG AEFG||
|:A3c dFFF|FGAB GEFG|Acc/c/c dFFF|gaga fdBG|
A3c dFFF|FGAB Gefg|a2ga fdBA|1 GABG AEFG:|2 GABG A4||

